X: 82
T: Over the Moor to Maggie
R: reel
Z: 2005 John Chambers <jc:trillian.mit.edu>
M: C|
L: 1/8
K: G
   BA \
| "G"G2-GA BGBd | "C"efge "G"dBAG \
|1,3 "Am"EAAG  ABAG | "Am"EAAG "D7"Ac \
:|2,4 "C"EGGF "(G)"GAGE | "D7"DGGF "G"G2 :|
|: ga \
| "G"b2-bg "D"a2-af | "C"gage "G"d2Bd \
|1,3 "Am"eaag abag | "Am"eaag "D7"a2 \
:|2,4 "C"eggf "(G)"gage | "D7"dggf "G"g2 :|
|: cd \
| "C"e2-ec "G"d2-dB | "Am"c2-cA  "G"B2AG \
|1,3 "Am"EAAG ABAG | "Am"EAAG "D7"AB \
:|2,4 "C"EGGF "(G)"GAGE |  "D7"DGGF "G"G2 :|

%%sep 1 1 500

